X:1
T:Mostarska tužaljka
T:Comp/text by Damir Bunoza BiH, Mostar, 2009
T:Mostarska tužaljka
T:Copyright © 
T:Copyright © 
C:Comp/text by Damir Bunoza
C:BiH, Mostar, 2009
Z:Copyright ©
%%score [ 1 2 3 4 ]
L:1/8
M:2/2
K:C
V:1 treble nm="SOPRANO" snm="S."
V:2 treble nm="ALTO" snm="A."
V:3 treble-8 transpose=-12 nm="TENOR" snm="T."
V:4 bass nm="BASS" snm="B."
V:1
 z8 | z8 | z8 | z8 | z8 | z8 | z8 | z8 | z8 | z8 | z8 | G8 | _A8 | B8 | !fermata!c8 |: cded fede | %16
w: |||||||||||U|Mo-|sta|ru.|Oj Ne- re- tvo di- vna vo- do,|
 d8 | cded efec | d8 | c2 d2 _e2 d2 | c2 B2 c2 _A2 | G8 | G8 | d2 _e2 f2 e2 | d2 c2 d2 B2 | c8 :| %26
w: Oooj|te- češ mo- ru si- lo- vi- to,|oj|Te- češ mo- ru|si- lo- vi- to,|te-|ci,|i od- ne- si|mr- kle zo- re,|ooj|
V:2
 z8 |!mf! B,^CDC D=CB,C | B,^CD_D =C4 | z8 |!mf! B,^CDC ECDE | EEDC B,4 |!p! E z z2 E z z2 | %7
w: |U Mo- sta- ru svije- će pa- ,|u Mo- sta- ru, jooj||A ne- ka- da ru- že cva- le,|a da- nas je jooj|U Mo-|
 E z z2 E4 | E z z2 E z z2 | E z z2 E4 | F8 | _E8 | _E8 | F8 | !fermata!E8 |: EFGF AGFG | F8 | %17
w: sta- ru|da- nas|je joj|joooj|u|Mo-|sta-|ru.|||
 EFGF GAGE | F8 | G2 G2 G2 G2 | G2 G2 G2 F2 | D8 | _E8 | G2 G2 G2 G2 | G2 G2 G2 F2 | E8 :| %26
w: te- češ mo- ru si- lo- vi- to,|oj|Te- češ mo- ru|si- lo- vi- to,|te|ci,|i od- ne- si|mr- kle zo- re|ooj|
V:3
!p! B8- | B8- | B8 | B8- | B8- | B8 |!mp! ^ABBB cBBB | ^ABcB A4 | ^ABcB dB=cd | ddcB ^A4 | B8 | %11
w: Jooo...j|||Jooo...j|||U Mo- sta- ru svje- će pa- le|u Mo- sta- ru joj,|a ne- ka- da ru- že cva- le|a da- nas je, joj|joooj|
 c8 | B8 | _A8 | !fermata!G8 |: z8 | dcBc Bcdc | G8 | dc B2 BA G2 | G2 B2 c2 B2 | c2 d2 _e2 c2 | %21
w: U|Mo-|sta-|ru.||Oj Ne- re- tvo di- vna vo- do||te- * ci, te- * ci,|Te- češ mo- ru|si- lo- vi- to,|
 B8 | c8 | B2 c2 B2 c2 | B2 c2 B2 d2 | c8 :| %26
w: te-|ci,|i od- ne- si|mr- kle- zo- re|ooj|
V:4
!p! E,8- | E,8- | E,8 | E,8- | E,8- | E,8 | E,E,E,E, E,E,E,E, | E,E,E,E, E,4 | E,E,E,E, E,E,E,E, | %9
w: ||||||U Mo- sta- ru svje- će pa- le|u Mo- sta- ru jooj,|a ne- ka- da ru- že cva- le|
 E,E,E,E, E,4 | D,8 | C,8 | _A,,8 | _D,8 | !fermata!C,8 |: z8 | B,A,G,A, G,F,D,E, | C,8 | %18
w: a da- nas je jooj|joooj|U|Mo-|sta-|ru.||Oj Ne- re- tvo di- vna vo- do||
 B,,C, D,2 D,E, F,2 | _E,2 D,2 C,2 D,2 | _E,2 F,2 E,2 F,2 | F,8 | _E,8 | F,2 _E,2 D,2 E,2 | %24
w: te- * ci, te- * ci,|Te- češ mo- ru|si- lo- vi- to,|te-|ci,|i od- ne- si|
 F,2 _E,2 D,2 D,2 | C,8 :| %26
w: mr- kle- zo- re|ooj|

